assets/img03-light.svg

<svg width="1753" height="909" fill="none" xmlns="http://www.w3.org/2000/svg"><path d="M0 82h1426c7.73 0 14 6.268 14 14v813H0V82Z" fill="#fff"/><g filter="url(#b)" clip-path="url(#a)"><mask id="c" fill="#fff"><path d="M0 82h1420c11.05 0 20 8.954 20 20v807H0V82Z"/></mask><path d="M0 82h1420c11.05 0 20 8.954 20 20v807H0V82Z" fill="#fff"/><path d="M0 80.5h1420c11.87 0 21.5 9.626 21.5 21.5h-3c0-10.217-8.28-18.5-18.5-18.5H0v-3ZM1440 909H0h1440ZM0 909V82v827ZM1420 80.5c11.87 0 21.5 9.626 21.5 21.5v807h-3V102c0-10.217-8.28-18.5-18.5-18.5v-3Z" fill="#BEBEBE" mask="url(#c)"/></g><g clip-path="url(#d)" stroke="#BEBEBE" stroke-width="1.5"><rect x="-164.25" y="227.898" width="495.62" height="608.442" rx="13.25"/><rect x="368.75" y="227.75" width="989.5" height="608.5" rx="13.25"/><path d="M824.164 865.84H-151c-7.318 0-13.25 5.932-13.25 13.25v359.32H837.414V879.09c0-7.318-5.932-13.25-13.25-13.25ZM1346.26 865.84H888.164c-7.318 0-13.25 5.932-13.25 13.25v359.32h484.596V879.09c0-7.318-5.93-13.25-13.25-13.25Z"/></g><mask id="e" fill="#fff"><path d="M0 82h1426c7.73 0 14 6.268 14 14v64H0V82Z"/></mask><path d="M0 82h1426c7.73 0 14 6.268 14 14v64H0V82Z" fill="#F3F3F3"/><path d="M0 80.5h1426c8.56 0 15.5 6.94 15.5 15.5h-3c0-6.904-5.6-12.5-12.5-12.5H0v-3ZM1440 160H0h1440ZM0 160V82v78Zm1426-79.5c8.56 0 15.5 6.94 15.5 15.5v64h-3V96c0-6.904-5.6-12.5-12.5-12.5v-3Z" fill="#BEBEBE" mask="url(#e)"/><g opacity=".5" filter="url(#g)" clip-path="url(#f)"><path d="M1.336 805.758c-4.551 3.128-5.705 9.354-2.578 13.906 3.128 4.551 9.354 5.706 13.906 2.578L1.336 805.758Zm220.292-139.254 2.727-9.621-4.52-1.281-3.871 2.661 5.664 8.241ZM684.344 544.18l5.244-8.515-5.468-3.367-5.338 3.571 5.562 8.311ZM981.19 727.004l-5.245 8.515 7.699 4.741 5.491-7.184-7.945-6.072Zm205.54-268.937 1.95-9.808-6.11-1.215-3.78 4.951 7.94 6.072Zm226.58 45.044-1.95 9.808 6.93 1.377 3.61-6.065-8.59-5.12ZM1689.59 59.12c2.83-4.744 1.27-10.882-3.47-13.71-4.74-2.828-10.88-1.274-13.71 3.47l17.18 10.24ZM12.664 822.242 227.29 674.746l-11.327-16.483L1.336 805.758l11.328 16.484ZM218.9 676.125c29.111 8.253 73.573 20.633 112.357 30.955 19.384 5.159 37.406 9.819 51.403 13.196 6.99 1.686 13.052 3.07 17.81 4.038 4.355.886 8.633 1.65 11.407 1.65v-20c.029 0-.535-.022-2.044-.256-1.37-.213-3.162-.542-5.375-.992-4.418-.899-10.215-2.22-17.108-3.883-13.771-3.321-31.618-7.935-50.949-13.08-38.646-10.286-82.999-22.635-112.046-30.87l-5.455 19.242Zm192.977 49.839c1.941 0 3.661-.484 4.618-.781 1.151-.358 2.349-.826 3.519-1.327 2.35-1.007 5.183-2.407 8.354-4.082 6.374-3.367 14.729-8.17 24.505-14.016 19.585-11.712 45.331-27.883 73.279-45.794 55.918-35.836 120.939-78.821 163.753-107.473l-11.123-16.622c-42.75 28.61-107.653 71.516-163.422 107.257-27.896 17.877-53.435 33.916-72.751 45.467-9.675 5.785-17.675 10.376-23.582 13.496-2.968 1.568-5.258 2.684-6.889 3.383-.82.351-1.328.534-1.582.613-.447.139.168-.121 1.321-.121v20ZM679.1 552.695l296.845 182.824 10.489-17.03-296.846-182.824-10.488 17.03Zm310.035 180.381L1194.68 464.14l-15.89-12.145-205.546 268.937 15.891 12.144Zm195.655-265.201 226.57 45.044 3.9-19.616-226.58-45.044-3.89 19.616Zm237.11 40.356L1689.59 59.12l-17.18-10.24-267.69 449.111 17.18 10.24Z" fill="url(#h)"/></g><path fill-rule="evenodd" clip-rule="evenodd" d="M1675.81 36.102c2.55-4.275.86-9.65-3.76-12.004-4.63-2.355-10.44-.797-12.99 3.479l-264.27 443.639-225.82-44.918-203.839 266.853-294.653-181.577-5.383 3.604c-42.755 28.629-107.665 71.565-163.441 107.33-27.899 17.889-53.444 33.941-72.766 45.502-9.677 5.79-17.683 10.387-23.595 13.511-2.973 1.571-5.266 2.69-6.9 3.39-.395.17-.717.3-.973.398a41.252 41.252 0 0 1-1.198-.17c-1.364-.211-3.151-.54-5.362-.99-4.415-.899-10.21-2.22-17.103-3.884-13.769-3.323-31.616-7.939-50.948-13.087-38.648-10.292-83.003-22.649-112.052-30.889l-4.628-1.312L0 776.957V799l209.777-144.502c29.06 8.221 70.953 19.869 107.738 29.665 19.386 5.162 37.412 9.826 51.412 13.205 6.991 1.687 13.056 3.073 17.819 4.043 4.345.884 8.655 1.656 11.47 1.656 1.994 0 3.747-.495 4.699-.792 1.156-.359 2.354-.828 3.523-1.329 2.348-1.006 5.177-2.405 8.346-4.08 6.369-3.366 14.719-8.17 24.494-14.018 19.582-11.717 45.326-27.895 73.275-45.817 53.624-34.385 115.619-75.349 158.375-103.936l299.086 184.308L1177.3 446.036l227.37 45.227 271.14-455.16ZM396.671 685.564a.555.555 0 0 1 .101-.028 1.145 1.145 0 0 1-.101.028Z" fill="url(#i)"/><defs><clipPath id="a"><path fill="#fff" d="M0 0h1714v909H0z"/></clipPath><clipPath id="d"><path fill="#fff" transform="translate(0 227)" d="M0 0h1360v682H0z"/></clipPath><clipPath id="f"><path fill="#fff" d="M0 0h1753v909H0z"/></clipPath><linearGradient id="h" x1="1322.01" y1="454.092" x2="40.436" y2="869.907" gradientUnits="userSpaceOnUse"><stop stop-color="#1BBD8C"/><stop offset=".613" stop-color="#39404B"/></linearGradient><linearGradient id="i" x1="1315.59" y1="432.629" x2="33.777" y2="848.285" gradientUnits="userSpaceOnUse"><stop offset=".309" stop-color="#1BBD8C"/><stop offset="1" stop-color="#CDCDCD"/></linearGradient><filter id="b" x="-100" y="12" width="1640" height="1027" filterUnits="userSpaceOnUse" color-interpolation-filters="sRGB"><feFlood flood-opacity="0" result="BackgroundImageFix"/><feColorMatrix in="SourceAlpha" values="0 0 0 0 0 0 0 0 0 0 0 0 0 0 0 0 0 0 127 0" result="hardAlpha"/><feOffset dy="30"/><feGaussianBlur stdDeviation="50"/><feComposite in2="hardAlpha" operator="out"/><feColorMatrix values="0 0 0 0 0 0 0 0 0 0 0 0 0 0 0 0 0 0 0.1 0"/><feBlend in2="BackgroundImageFix" result="effect1_dropShadow_18_380"/><feBlend in="SourceGraphic" in2="effect1_dropShadow_18_380" result="shape"/></filter><filter id="g" x="-53.001" y="-6.001" width="1794" height="880.002" filterUnits="userSpaceOnUse" color-interpolation-filters="sRGB"><feFlood flood-opacity="0" result="BackgroundImageFix"/><feBlend in="SourceGraphic" in2="BackgroundImageFix" result="shape"/><feGaussianBlur stdDeviation="25" result="effect1_foregroundBlur_18_380"/></filter></defs></svg>

<svg width="1753" height="909" viewBox="0 0 1753 909" fill="none" xmlns="http://www.w3.org/2000/svg">
<path d="M0 82H1426C1433.73 82 1440 88.268 1440 96V909H0V82Z" fill="white"/>
<g clip-path="url(#clip0_18_380)">
<g filter="url(#filter0_d_18_380)">
<mask id="path-2-inside-1_18_380" fill="white">
<path d="M0 82H1420C1431.05 82 1440 90.9543 1440 102V909H0V82Z"/>
</mask>
<path d="M0 82H1420C1431.05 82 1440 90.9543 1440 102V909H0V82Z" fill="white"/>
<path d="M0 80.5H1420C1431.87 80.5 1441.5 90.1259 1441.5 102H1438.5C1438.5 91.7827 1430.22 83.5 1420 83.5H0V80.5ZM1440 909H0H1440ZM0 909V82V909ZM1420 80.5C1431.87 80.5 1441.5 90.1259 1441.5 102V909H1438.5V102C1438.5 91.7827 1430.22 83.5 1420 83.5V80.5Z" fill="#BEBEBE" mask="url(#path-2-inside-1_18_380)"/>
</g>
</g>
<g clip-path="url(#clip1_18_380)">
<rect x="-164.25" y="227.898" width="495.62" height="608.442" rx="13.25" stroke="#BEBEBE" stroke-width="1.5"/>
<rect x="368.75" y="227.75" width="989.5" height="608.5" rx="13.25" stroke="#BEBEBE" stroke-width="1.5"/>
<path d="M824.164 865.84H-151C-158.318 865.84 -164.25 871.772 -164.25 879.09V1238.41H837.414V879.09C837.414 871.772 831.482 865.84 824.164 865.84Z" stroke="#BEBEBE" stroke-width="1.5"/>
<path d="M1346.26 865.84H888.164C880.846 865.84 874.914 871.772 874.914 879.09V1238.41H1359.51V879.09C1359.51 871.772 1353.58 865.84 1346.26 865.84Z" stroke="#BEBEBE" stroke-width="1.5"/>
</g>
<mask id="path-8-inside-2_18_380" fill="white">
<path d="M0 82H1426C1433.73 82 1440 88.268 1440 96V160H0V82Z"/>
</mask>
<path d="M0 82H1426C1433.73 82 1440 88.268 1440 96V160H0V82Z" fill="#F3F3F3"/>
<path d="M0 80.5H1426C1434.56 80.5 1441.5 87.4396 1441.5 96H1438.5C1438.5 89.0964 1432.9 83.5 1426 83.5H0V80.5ZM1440 160H0H1440ZM0 160V82V160ZM1426 80.5C1434.56 80.5 1441.5 87.4396 1441.5 96V160H1438.5V96C1438.5 89.0964 1432.9 83.5 1426 83.5V80.5Z" fill="#BEBEBE" mask="url(#path-8-inside-2_18_380)"/>
<g clip-path="url(#clip2_18_380)">
<g opacity="0.5" filter="url(#filter1_f_18_380)">
<path d="M1.3363 805.758C-3.21536 808.886 -4.36949 815.112 -1.24151 819.664C1.88647 824.215 8.11204 825.37 12.6637 822.242L1.3363 805.758ZM221.628 666.504L224.355 656.883L219.835 655.602L215.964 658.263L221.628 666.504ZM684.344 544.18L689.588 535.665L684.12 532.298L678.782 535.869L684.344 544.18ZM981.19 727.004L975.945 735.519L983.644 740.26L989.135 733.076L981.19 727.004ZM1186.73 458.067L1188.68 448.259L1182.57 447.044L1178.79 451.995L1186.73 458.067ZM1413.31 503.111L1411.36 512.919L1418.29 514.296L1421.9 508.231L1413.31 503.111ZM1689.59 59.1199C1692.42 54.3758 1690.86 48.2377 1686.12 45.4101C1681.38 42.5824 1675.24 44.136 1672.41 48.8801L1689.59 59.1199ZM12.6637 822.242L227.291 674.746L215.964 658.263L1.3363 805.758L12.6637 822.242ZM218.9 676.125C248.011 684.378 292.473 696.758 331.257 707.08C350.641 712.239 368.663 716.899 382.66 720.276C389.65 721.962 395.712 723.346 400.47 724.314C404.825 725.2 409.103 725.964 411.877 725.964V705.964C411.906 705.964 411.342 705.942 409.833 705.708C408.463 705.495 406.671 705.166 404.458 704.716C400.04 703.817 394.243 702.496 387.35 700.833C373.579 697.512 355.732 692.898 336.401 687.753C297.755 677.467 253.402 665.118 224.355 656.883L218.9 676.125ZM411.877 725.964C413.818 725.964 415.538 725.48 416.495 725.183C417.646 724.825 418.844 724.357 420.014 723.856C422.364 722.849 425.197 721.449 428.368 719.774C434.742 716.407 443.097 711.604 452.873 705.758C472.458 694.046 498.204 677.875 526.152 659.964C582.07 624.128 647.091 581.143 689.905 552.491L678.782 535.869C636.032 564.479 571.129 607.385 515.36 643.126C487.464 661.003 461.925 677.042 442.609 688.593C432.934 694.378 424.934 698.969 419.027 702.089C416.059 703.657 413.769 704.773 412.138 705.472C411.318 705.823 410.81 706.006 410.556 706.085C410.109 706.224 410.724 705.964 411.877 705.964V725.964ZM679.1 552.695L975.945 735.519L986.434 718.489L689.588 535.665L679.1 552.695ZM989.135 733.076L1194.68 464.14L1178.79 451.995L973.244 720.932L989.135 733.076ZM1184.79 467.875L1411.36 512.919L1415.26 493.303L1188.68 448.259L1184.79 467.875ZM1421.9 508.231L1689.59 59.1199L1672.41 48.8801L1404.72 497.991L1421.9 508.231Z" fill="url(#paint0_linear_18_380)"/>
</g>
</g>
<path fill-rule="evenodd" clip-rule="evenodd" d="M1675.81 36.1023C1678.36 31.8267 1676.67 26.452 1672.05 24.0977C1667.42 21.7434 1661.61 23.3009 1659.06 27.5765L1394.79 471.216L1168.97 426.298L965.131 693.151L670.478 511.574L665.095 515.178C622.34 543.807 557.43 586.743 501.654 622.508C473.755 640.397 448.21 656.449 428.888 668.01C419.211 673.8 411.205 678.397 405.293 681.521C402.32 683.092 400.027 684.211 398.393 684.911C397.998 685.081 397.676 685.211 397.42 685.309C397.118 685.271 396.723 685.217 396.222 685.139C394.858 684.928 393.071 684.599 390.86 684.149C386.445 683.25 380.65 681.929 373.757 680.265C359.988 676.942 342.141 672.326 322.809 667.178C284.161 656.886 239.806 644.529 210.757 636.289L206.129 634.977L0 776.957V799L209.777 654.498C238.837 662.719 280.73 674.367 317.515 684.163C336.901 689.325 354.927 693.989 368.927 697.368C375.918 699.055 381.983 700.441 386.746 701.411C391.091 702.295 395.401 703.067 398.216 703.067C400.21 703.067 401.963 702.572 402.915 702.275C404.071 701.916 405.269 701.447 406.438 700.946C408.786 699.94 411.615 698.541 414.784 696.866C421.153 693.5 429.503 688.696 439.278 682.848C458.86 671.131 484.604 654.953 512.553 637.031C566.177 602.646 628.172 561.682 670.928 533.095L970.014 717.403L1177.3 446.036L1404.67 491.263L1675.81 36.1023ZM396.671 685.564C396.663 685.565 396.699 685.553 396.772 685.536C396.71 685.555 396.678 685.563 396.671 685.564Z" fill="url(#paint1_linear_18_380)"/>
<defs>
<filter id="filter0_d_18_380" x="-100" y="12" width="1640" height="1027" filterUnits="userSpaceOnUse" color-interpolation-filters="sRGB">
<feFlood flood-opacity="0" result="BackgroundImageFix"/>
<feColorMatrix in="SourceAlpha" type="matrix" values="0 0 0 0 0 0 0 0 0 0 0 0 0 0 0 0 0 0 127 0" result="hardAlpha"/>
<feOffset dy="30"/>
<feGaussianBlur stdDeviation="50"/>
<feComposite in2="hardAlpha" operator="out"/>
<feColorMatrix type="matrix" values="0 0 0 0 0 0 0 0 0 0 0 0 0 0 0 0 0 0 0.1 0"/>
<feBlend mode="normal" in2="BackgroundImageFix" result="effect1_dropShadow_18_380"/>
<feBlend mode="normal" in="SourceGraphic" in2="effect1_dropShadow_18_380" result="shape"/>
</filter>
<filter id="filter1_f_18_380" x="-53.001" y="-6.00146" width="1794" height="880.002" filterUnits="userSpaceOnUse" color-interpolation-filters="sRGB">
<feFlood flood-opacity="0" result="BackgroundImageFix"/>
<feBlend mode="normal" in="SourceGraphic" in2="BackgroundImageFix" result="shape"/>
<feGaussianBlur stdDeviation="25" result="effect1_foregroundBlur_18_380"/>
</filter>
<linearGradient id="paint0_linear_18_380" x1="1322.01" y1="454.092" x2="40.4356" y2="869.907" gradientUnits="userSpaceOnUse">
<stop stop-color="#1BBD8C"/>
<stop offset="0.613423" stop-color="#39404B"/>
</linearGradient>
<linearGradient id="paint1_linear_18_380" x1="1315.59" y1="432.629" x2="33.7773" y2="848.285" gradientUnits="userSpaceOnUse">
<stop offset="0.308527" stop-color="#1BBD8C"/>
<stop offset="1" stop-color="#CDCDCD"/>
</linearGradient>
<clipPath id="clip0_18_380">
<rect width="1714" height="909" fill="white"/>
</clipPath>
<clipPath id="clip1_18_380">
<rect width="1360" height="682" fill="white" transform="translate(0 227)"/>
</clipPath>
<clipPath id="clip2_18_380">
<rect width="1753" height="909" fill="white"/>
</clipPath>
</defs>
</svg>
